X: 136
U: p=!crescendo(!
U: P=!crescendo)!
U: Q=!diminuendo(!
U: q=!diminuendo)!
Q: "Lively."
M: 4/4
L: 1/4
K: Ab
e | c-c Bc | A2 EE | FA GB | E3 ||
e | c-c Bc | A-A Ec | BG AF | E3 ||
E | dd cpc | B2 EE | Pee dd | c3 ||


